X: 1
T: Lord McDonald's
R: reel
M: 4/4
L: 1/8
K: Gmaj
DGBG dGBG | c2Bc AGEG | DGBG dGBG | DEDC B,G,G,2|
DGBG dGBG | cABG AGEG | BcBA GAGE | DEGA BGG2 ||
Bd~d2 dBGB | defg afge | Bd~d2 dBGB | ABcA BGG2 |
Bd~d2 dBGB | defg afge | Bd~d2 gd~d2 | cBAc BGG2 ||
dgbg agbg | dg(3bag ageg | dgbg agbg | dedc BGG2 |
dgbg agbg | dg(3bag ageg | (3bag (3agf ged^c | dega bg~g2 ||
Bd(3.d.d.d dBGB | defg afge | Bd(3.d.d.d dBGB | ABcA BGG2 |
Bd(3.d.d.d dBGB | defg afge | Bd(3.d.d.d gd(3.d.d.d | cBAc BGG2 ||


Tune 507	Setting 13433

